X: 247
T:Garrykennedy Castle
D:Inishkeeragh by Brenda McCann
M:4/4
L:1/8
K:F
(3CDE|FAc=B dcBc|AF (3FEF CFAc|BABd gfed|(3ddc =Bd c_BAB|
cf (3fef afcA|(3BAB dB cAFA|GCEG c=Bdc | BGDE F2:|
AB|cf (3fef cfaf|cAFA CFAc|BdGF EGc=B|dc=Bd c_BAB|
cf (3fef cAFA|G^FGA Bdgf|edc=B _BCDE| (3FEF AG F2:|
